dist/img/svg/route.svg

<svg width="20" height="20" viewBox="0 0 20 20" fill="none" xmlns="http://www.w3.org/2000/svg">
<path d="M1.72342 3.83315C2.39009 0.949821 6.73175 0.949821 7.39009 3.83315C7.78175 5.52482 6.70675 6.95815 5.77342 7.84982C5.09009 8.49982 4.01509 8.49149 3.33175 7.84982C2.40675 6.95815 1.33175 5.52482 1.72342 3.83315Z" stroke="currentColor" stroke-width="1.25"/>
<path d="M12.5593 13.8332C13.226 10.9498 17.5926 10.9498 18.2593 13.8332C18.651 15.5248 17.576 16.9582 16.6343 17.8498C15.951 18.4998 14.8676 18.4915 14.1843 17.8498C13.2426 16.9582 12.1676 15.5248 12.5593 13.8332Z" stroke="currentColor" stroke-width="1.25"/>
<path d="M9.99943 4.16675H12.2328C13.7744 4.16675 14.4911 6.07508 13.3328 7.09175L6.67443 12.9167C5.51609 13.9251 6.23276 15.8334 7.76609 15.8334H9.99943" stroke="currentColor" stroke-width="1.25" stroke-linecap="round" stroke-linejoin="round"/>
<path d="M4.57307 4.58341H4.5827" stroke="currentColor" stroke-width="1.25" stroke-linecap="round" stroke-linejoin="round"/>
<path d="M15.4051 14.5834H15.4147" stroke="currentColor" stroke-width="1.25" stroke-linecap="round" stroke-linejoin="round"/>
</svg>

<svg width="20" height="20" viewBox="0 0 20 20" fill="none" xmlns="http://www.w3.org/2000/svg"><path d="M1.723 3.833C2.39.95 6.732.95 7.39 3.833c.392 1.692-.683 3.125-1.617 4.017a1.78 1.78 0 01-2.441 0c-.925-.892-2-2.325-1.609-4.017zm10.837 10c.666-2.883 5.033-2.883 5.7 0 .391 1.692-.684 3.125-1.626 4.017a1.791 1.791 0 01-2.45 0c-.941-.892-2.016-2.325-1.625-4.017z" stroke="currentColor" stroke-width="1.25"/><path d="M10 4.167h2.233c1.541 0 2.258 1.908 1.1 2.925l-6.659 5.825c-1.158 1.008-.441 2.916 1.092 2.916H10M4.573 4.583h.01m10.822 10h.01" stroke="currentColor" stroke-width="1.25" stroke-linecap="round" stroke-linejoin="round"/></svg>
